src/assets/emoji/noto-emoji/1F6A7.svg

<svg enable-background="new 0 0 128 128" viewBox="0 0 128 128" xmlns="http://www.w3.org/2000/svg" xmlns:xlink="http://www.w3.org/1999/xlink"><path d="m24.24 124h-7.94c-1.66 0-3-1.34-3-3v-43.73h13.94v43.73c0 1.66-1.35 3-3 3z" fill="#BDBDBD"/><path d="m112.51 124h-7.94c-1.66 0-3-1.34-3-3v-43.73h13.94v43.73c0 1.66-1.34 3-3 3z" fill="#BDBDBD"/><g opacity=".2"><path d="m25.24 79.27v41.73c0 0.55-0.45 1-1 1h-7.94c-0.55 0-1-0.45-1-1v-41.73h9.94m2-2h-13.95v43.73c0 1.66 1.34 3 3 3h7.94c1.66 0 3-1.34 3-3v-43.73h0.01z" fill="#424242"/></g><g opacity=".2"><path d="m113.51 79.27v41.73c0 0.55-0.45 1-1 1h-7.94c-0.55 0-1-0.45-1-1v-41.73h9.94m2-2h-13.94v43.73c0 1.66 1.34 3 3 3h7.94c1.66 0 3-1.34 3-3v-43.73z" fill="#424242"/></g><linearGradient id="c" x1="64" x2="64" y1="39.192" y2="81.02" gradientUnits="userSpaceOnUse"><stop stop-color="#FFEE58" offset=".0256"/><stop stop-color="#FDD642" offset=".4867"/><stop stop-color="#FBC02D" offset="1"/></linearGradient><path d="m120 82.17h-112c-2.21 0-4-1.79-4-4v-33.54c0-2.21 1.79-4 4-4h112c2.21 0 4 1.79 4 4v33.54c0 2.21-1.79 4-4 4z" fill="url(#c)"/><circle cx="20.35" cy="31.4" r="9.04" fill="#BDBDBD"/><circle cx="20.35" cy="31.4" r="6.73" fill="#F44336"/><circle cx="108.54" cy="31.4" r="9.04" fill="#BDBDBD"/><circle cx="108.54" cy="31.4" r="6.73" fill="#F44336"/><defs><path id="b" d="m120 82.17h-112c-2.21 0-4-1.79-4-4v-33.54c0-2.21 1.79-4 4-4h112c2.21 0 4 1.79 4 4v33.54c0 2.21-1.79 4-4 4z"/></defs><clipPath id="a"><use xlink:href="#b"/></clipPath><g clip-path="url(#a)"><polygon points="-15.62 88.64 -33.58 88.64 -2.13 34.16 15.84 34.16"/><polygon points="20.82 88.64 2.85 88.64 34.31 34.16 52.27 34.16"/><polygon points="57.26 88.64 39.29 88.64 70.74 34.16 88.71 34.16"/><polygon points="93.69 88.64 75.73 88.64 107.18 34.16 125.15 34.16"/><polygon points="130.13 88.64 112.16 88.64 143.62 34.16 161.58 34.16"/></g><g opacity=".2"><path d="m120 43.63c0.55 0 1 0.45 1 1v33.54c0 0.55-0.45 1-1 1h-112c-0.55 0-1-0.45-1-1v-33.54c0-0.55 0.45-1 1-1h112m0-3h-112c-2.21 0-4 1.79-4 4v33.54c0 2.21 1.79 4 4 4h112c2.21 0 4-1.79 4-4v-33.54c0-2.2-1.79-4-4-4z" fill="#424242"/></g></svg>

<?xml version="1.0" encoding="utf-8"?>
<!-- Generator: Adobe Illustrator 24.0.3, SVG Export Plug-In . SVG Version: 6.00 Build 0)  -->
<svg version="1.1" id="Layer_1" xmlns="http://www.w3.org/2000/svg" xmlns:xlink="http://www.w3.org/1999/xlink" x="0px" y="0px"
	 viewBox="0 0 128 128" style="enable-background:new 0 0 128 128;" xml:space="preserve">
<linearGradient id="SVGID_1_" gradientUnits="userSpaceOnUse" x1="108.54" y1="122.8832" x2="108.54" y2="76.5578">
	<stop  offset="0.3563" style="stop-color:#BFBEBE"/>
	<stop  offset="1" style="stop-color:#504F4F"/>
</linearGradient>
<path style="fill:url(#SVGID_1_);" d="M112.51,124h-7.94c-1.66,0-3-1.34-3-3V77.27h13.94V121C115.51,122.66,114.17,124,112.51,124z"
	/>
<linearGradient id="SVGID_2_" gradientUnits="userSpaceOnUse" x1="20.27" y1="122.8832" x2="20.27" y2="76.5578">
	<stop  offset="0.3563" style="stop-color:#BFBEBE"/>
	<stop  offset="1" style="stop-color:#504F4F"/>
</linearGradient>
<path style="fill:url(#SVGID_2_);" d="M24.24,124H16.3c-1.66,0-3-1.34-3-3V77.27h13.94V121C27.24,122.66,25.9,124,24.24,124z"/>
<linearGradient id="SVGID_3_" gradientUnits="userSpaceOnUse" x1="64" y1="88.808" x2="64" y2="46.98" gradientTransform="matrix(1 0 0 -1 0 128)">
	<stop  offset="0.0256" style="stop-color:#FFEE58"/>
	<stop  offset="0.4867" style="stop-color:#FDD642"/>
	<stop  offset="1" style="stop-color:#FBC02D"/>
</linearGradient>
<path style="fill:url(#SVGID_3_);" d="M120,82.17H8c-2.21,0-4-1.79-4-4V44.63c0-2.21,1.79-4,4-4h112c2.21,0,4,1.79,4,4v33.54
	C124,80.38,122.21,82.17,120,82.17z"/>
<radialGradient id="SVGID_4_" cx="20.35" cy="31.4" r="9.04" gradientUnits="userSpaceOnUse">
	<stop  offset="0.5711" style="stop-color:#F44336"/>
	<stop  offset="0.9988" style="stop-color:#E12400"/>
</radialGradient>
<circle style="fill:url(#SVGID_4_);" cx="20.35" cy="31.4" r="9.04"/>
<radialGradient id="SVGID_5_" cx="108.54" cy="31.4" r="9.04" gradientUnits="userSpaceOnUse">
	<stop  offset="0.5711" style="stop-color:#F44336"/>
	<stop  offset="0.9988" style="stop-color:#E12400"/>
</radialGradient>
<circle style="fill:url(#SVGID_5_);" cx="108.54" cy="31.4" r="9.04"/>
<g>
	<path d="M12.1,40.63L4,54.66V44.63c0-2.21,1.79-4,4-4H12.1z"/>
	<path d="M48.54,40.63L24.55,82.17H8c-0.45,0-0.88-0.08-1.29-0.22l23.86-41.32H48.54z"/>
	<polygon points="84.98,40.63 60.99,82.17 43.02,82.17 67.01,40.63 	"/>
	<path d="M121.29,40.85L97.43,82.17H79.46l23.99-41.54H120C120.45,40.63,120.88,40.71,121.29,40.85z"/>
	<path d="M124,68.14v10.03c0,2.21-1.79,4-4,4h-4.1L124,68.14z"/>
</g>
<linearGradient id="SVGID_6_" gradientUnits="userSpaceOnUse" x1="4" y1="61.4" x2="124" y2="61.4">
	<stop  offset="1.200100e-03" style="stop-color:#BFBEBE"/>
	<stop  offset="0.05" style="stop-color:#212121;stop-opacity:0"/>
	<stop  offset="0.95" style="stop-color:#212121;stop-opacity:0"/>
	<stop  offset="1" style="stop-color:#BFBEBE"/>
</linearGradient>
<path style="opacity:0.2;fill:url(#SVGID_6_);" d="M124,44.63v33.54c0,2.21-1.79,4-4,4H8c-0.45,0-0.88-0.08-1.29-0.22
	C5.13,81.42,4,79.93,4,78.17V44.63c0-2.21,1.79-4,4-4h112c0.45,0,0.88,0.08,1.29,0.22C122.87,41.38,124,42.87,124,44.63z"/>
<linearGradient id="SVGID_7_" gradientUnits="userSpaceOnUse" x1="64" y1="41.9946" x2="64" y2="81.4285" gradientTransform="matrix(1 0 0 -1 0 122.8)">
	<stop  offset="1.200100e-03" style="stop-color:#BFBEBE"/>
	<stop  offset="0.3" style="stop-color:#212121;stop-opacity:0"/>
	<stop  offset="0.85" style="stop-color:#212121;stop-opacity:0"/>
	<stop  offset="1" style="stop-color:#BFBEBE"/>
</linearGradient>
<path style="opacity:0.3;fill:url(#SVGID_7_);" d="M124,78.17V44.63c0-2.21-1.79-4-4-4H8c-0.45,0-0.88,0.08-1.29,0.22
	C5.13,41.38,4,42.87,4,44.63v33.54c0,2.21,1.79,4,4,4h112c0.45,0,0.88-0.08,1.29-0.22C122.87,81.42,124,79.93,124,78.17z"/>
</svg>
